X: 25203
T: Malcolm Finlay
R: reel
M: 4/4
K: Dmajor
B|ADFA dfaf|e3d fedB|ADFA dfaf|edef d3B|
ADFA dfaf|e3d fedB|ADFA dfaf|edef d2 d2||
e|fdad fadf|edfd B3d|fdad fadf|edef d3e|
fdad fadf|edfd B3d|ADFA dfaf|edef d2 d2||

